<?xml version="1.0" encoding="UTF-8"?>
<map version="1.10" tiledversion="1.12.2" orientation="orthogonal" renderorder="right-down" width="30" height="20" tilewidth="16" tileheight="16" infinite="0" nextlayerid="2" nextobjectid="1">
 <editorsettings>
  <export target="world.json" format="json"/>
 </editorsettings>
 <tileset firstgid="1" source="ground.tsx"/>
 <layer id="1" name="Tile Layer 1" width="30" height="20">
  <properties>
   <property name="has_collision" type="bool" value="true"/>
   <property name="texture_name" value="textures\tilemap.png"/>
  </properties>
  <data encoding="csv">
0,0,0,0,0,0,0,0,0,0,0,0,0,0,0,0,0,0,0,0,0,0,0,0,0,0,0,0,0,0,
0,0,0,0,0,0,0,0,0,0,0,0,0,0,0,0,0,0,0,0,0,0,0,0,0,0,0,0,0,0,
0,0,0,0,0,0,0,0,0,0,0,0,0,0,0,0,0,0,0,0,0,0,0,0,0,0,0,0,0,0,
0,0,0,0,0,0,0,0,0,0,0,0,0,0,0,0,0,0,0,0,4,4,0,0,0,0,0,0,0,0,
0,0,0,0,0,0,0,0,0,0,0,0,0,0,0,0,0,0,0,0,0,0,0,0,0,0,0,0,0,0,
0,0,0,0,0,0,0,0,0,0,0,0,0,0,0,4,4,4,4,0,0,0,0,0,0,0,0,0,0,0,
0,0,0,0,0,0,0,0,0,0,0,0,0,0,0,0,0,0,0,0,0,0,4,4,4,0,0,0,0,0,
0,0,0,0,0,0,0,0,0,0,0,0,0,0,0,0,0,0,0,0,0,0,0,0,0,0,0,0,0,0,
0,0,0,4,4,4,4,4,4,4,4,4,4,4,4,4,4,0,0,0,0,0,0,0,0,0,0,0,0,0,
0,27,4,28,53,53,54,80,80,80,80,80,80,80,54,80,30,4,0,0,0,0,0,0,0,0,0,0,0,0,
0,52,80,80,80,80,80,80,80,80,80,80,80,80,80,80,80,55,4,0,0,0,0,0,0,0,0,0,0,0,
0,52,80,54,80,80,80,54,54,54,80,80,80,54,54,80,54,55,56,0,0,0,0,0,0,0,0,0,0,0,
0,52,80,54,54,80,54,54,54,54,54,54,80,80,54,80,80,80,81,0,0,0,0,0,0,0,0,0,0,0,
0,52,80,80,54,54,80,80,54,54,54,54,54,80,80,80,80,105,0,0,0,0,0,0,0,0,0,0,4,4,
0,77,78,80,80,80,80,80,54,54,54,54,80,80,80,80,105,0,0,0,0,0,0,0,0,0,0,0,0,0,
0,0,103,104,104,104,104,80,80,80,80,80,80,80,104,81,0,0,0,0,0,0,0,0,0,0,0,0,0,0,
0,0,0,0,0,103,104,104,104,104,104,104,104,104,105,0,0,0,0,0,0,0,0,0,0,0,0,0,0,0,
0,0,0,0,0,0,0,0,0,0,0,0,0,0,0,0,0,0,0,0,0,0,0,0,0,4,4,4,0,0,
0,0,0,0,0,0,0,0,0,0,0,0,0,0,0,0,0,0,0,0,0,0,0,0,0,0,0,0,0,0,
0,0,0,0,0,0,0,0,0,0,0,0,0,0,0,0,0,0,0,0,0,0,0,0,0,0,0,0,0,0
</data>
 </layer>
</map>
